X: 37222
T: Sister, The
R: reel
M: 4/4
K: Dmajor
Az DA Az DA|ABAG ED D2|G2 DG BAGA|B2 B=c BA A2|
Az DA Az DA|ABAG ED Dz|(3Bcd eg fdec|dBAG FD D2|
g2 ag fdde|f2 ed cA A2|g2 ag fddg|fgaf g3 f|
g2 ag fdde|f2 ed cA A2|g2 ag fddg|fgaf gedB|

